assets/img/monitor.svg

<svg 
 xmlns="http://www.w3.org/2000/svg"
 xmlns:xlink="http://www.w3.org/1999/xlink"
 width="50px" height="50px">
<path fill-rule="evenodd"  fill-opacity="0" fill="rgb(33, 130, 238)"
 d="M0.000,0.000 L50.000,0.000 L50.000,50.000 L0.000,50.000 L0.000,0.000 Z"/>
<path fill-rule="evenodd"  fill="rgb(0, 111, 235)"
 d="M31.008,44.509 L21.065,44.509 L21.065,45.988 C21.065,47.344 22.146,48.447 23.475,48.447 L25.666,48.447 C26.086,48.447 26.427,48.795 26.427,49.224 C26.427,49.652 26.086,50.000 25.666,50.000 L7.334,50.000 C6.913,50.000 6.573,49.652 6.573,49.224 C6.573,48.795 6.913,48.447 7.334,48.447 L9.525,48.447 C10.854,48.447 11.935,47.344 11.935,45.988 L11.935,44.509 L1.992,44.509 C0.894,44.509 0.000,43.597 0.000,42.476 L0.000,22.033 C0.000,20.912 0.894,20.000 1.992,20.000 L31.008,20.000 C32.106,20.000 33.000,20.912 33.000,22.033 L33.000,42.476 C33.000,43.597 32.106,44.509 31.008,44.509 ZM20.372,48.448 C19.854,47.768 19.544,46.915 19.544,45.988 L19.544,44.509 L13.456,44.509 L13.456,45.988 C13.456,46.915 13.146,47.768 12.628,48.448 L20.372,48.448 ZM1.521,42.476 C1.521,42.741 1.733,42.956 1.992,42.956 L31.008,42.956 C31.267,42.956 31.478,42.741 31.478,42.476 L31.478,38.396 L1.521,38.396 L1.521,42.476 ZM31.479,22.033 C31.479,21.768 31.267,21.553 31.008,21.553 L1.992,21.553 C1.733,21.553 1.521,21.768 1.521,22.033 L1.521,36.843 L31.478,36.843 L31.479,36.843 L31.479,22.033 ZM18.849,31.811 C18.701,31.963 18.506,32.038 18.311,32.038 C18.117,32.038 17.922,31.963 17.773,31.811 C17.476,31.508 17.476,31.016 17.773,30.713 L19.915,28.528 C20.212,28.225 20.694,28.225 20.991,28.528 C21.288,28.831 21.288,29.322 20.991,29.626 L18.849,31.811 ZM12.428,31.933 C12.280,32.084 12.085,32.160 11.890,32.160 C11.695,32.160 11.501,32.084 11.352,31.933 C11.055,31.629 11.055,31.138 11.352,30.835 L16.728,25.348 C17.026,25.045 17.507,25.045 17.804,25.348 C18.102,25.652 18.102,26.143 17.804,26.446 L12.428,31.933 ZM16.500,41.514 C16.047,41.514 15.679,41.139 15.679,40.677 C15.679,40.214 16.047,39.839 16.500,39.839 C16.954,39.839 17.321,40.214 17.321,40.677 C17.321,41.139 16.954,41.514 16.500,41.514 Z"/>
</svg>

<svg id="Слой_1" data-name="Слой 1" xmlns="http://www.w3.org/2000/svg" viewBox="0 0 50 50"><defs><style>.cls-1{fill:#2182ee;fill-opacity:0;}.cls-2{fill:#11a2f6;}</style></defs><title>monitor</title><path class="cls-1" d="M0,0H50V50H0Z"/><path class="cls-2" d="M31,44.51H21.07V46a2.44,2.44,0,0,0,2.41,2.46h2.19a.76.76,0,0,1,.76.77.77.77,0,0,1-.76.78H7.33a.77.77,0,0,1-.76-.78.76.76,0,0,1,.76-.77H9.52A2.45,2.45,0,0,0,11.94,46V44.51H2a2,2,0,0,1-2-2V22a2,2,0,0,1,2-2H31a2,2,0,0,1,2,2V42.48A2,2,0,0,1,31,44.51ZM20.37,48.45A4,4,0,0,1,19.54,46V44.51H13.46V46a4,4,0,0,1-.83,2.46Zm-18.85-6A.48.48,0,0,0,2,43H31a.48.48,0,0,0,.47-.48V38.4h-30ZM31.48,22a.48.48,0,0,0-.47-.48H2a.48.48,0,0,0-.47.48V36.84h30ZM18.85,31.81a.76.76,0,0,1-.54.23.78.78,0,0,1-.54-.23.8.8,0,0,1,0-1.1l2.15-2.18a.75.75,0,0,1,1.07,0,.78.78,0,0,1,0,1.1Zm-6.42.12a.75.75,0,0,1-1.08,0,.8.8,0,0,1,0-1.1l5.38-5.48a.75.75,0,0,1,1.07,0,.78.78,0,0,1,0,1.1Zm4.07,9.58a.84.84,0,1,1,.82-.83A.83.83,0,0,1,16.5,41.51Z"/></svg>
